X:230
T: Shi bei jiu
N: C1715
O: China, bei Shaanxi, Chunhua
S: Hanzu minge gailun, 223]
R: Xiaodiao, Mengjiangn diao. Nann qing]
M: 2/4
L: 1/16
K: F
F4F2D2 | c8 | d2f2c2B2 | G8
c2A2c4 | G2A2G2F2 | D2G2F2D2 | C8
C2D2F4 | G4c4 | GAG2G2C2 | D8
c2B2c2B2 | G2c2B2G2 | F2C2z2c2 | G6F2
_E6F2 | G2F2_E2D2 | C6F2 | C8

